X: 24317
T: Lough Isle Castle
R: reel
M: 4/4
K: Amixolydian
a>g|:e2 dg eABd|e2 Ad BGBd|e2 dg eAAd|B2 gd BGBd:|
cA A/A/A cAcd|cA A/A/A dGBd|cA A/A/A cAdc|Bdgd BGBd:|
a^gae cBAf|gfgd Bda^g|a^gae cBAc|Bdgb a^geg|
a^gae cBAf|gfgd Bda^g|afge fded|Bdgb afge||
fedf eAAf|gedg (3efg fg|fedf eAcA|Bdgb afge|
fedf eAAf|gedg efg^g|afge fded|Bdgb afge||

